X:455
T:Reel 455
M:4/4
K:Dmaj
L:1/8
AG|FEFG ABcG|FGAF E2AG|FEFG ABcA|GEEF GABc|dBcA BGAF|FEFG ABcd| (3edc dB cABG|FDEC D2|FA|dBcd eAAG|FEFG A2Bc|dBcA BGAF|GEEF G2AG|FEFG ABAG|FGAB A2AB|cBcA BGAF|GECE FGAG|
